X:1
T:James Gibb editions
T:In Te, Domine  - des Prez
T:#
%%score [ 1 2 3 4 ]
L:1/8
Q:1/4=60
M:4/4
K:G
V:1 treble nm="Soprano" snm="S"
V:2 treble nm="Alto" snm="A"
V:3 treble-8 nm="Tenor" snm="T"
V:4 bass nm="Bass" snm="B"
V:1
"^In Te, Domine, speravi""^Josquin des Prez\n(c.1455-1521)" B2 B2 c>B AG | (F2 G2 E4 | %2
w: In Te, Do- mi- ne, spe-|ra- * *|
 F G2 F G2 G/A/B/c/) | d4 d2 c2 |[M:4/4] B3 A G2 F2 | G4 F4 | d4 d2 c2 | B3 A G2 F2 | G4 F4 | %9
w: |vi, per tro-|var pie- tà\_in e-|ter- no.|Ma in un|tris- to\_e\_ob- scu- ro\_in-|fer- no|
 B3 A G2 F(B- | B/A/G/F/ E2) F (G2 F) | G4 B2 B2 | c>B AG (F2 G2 | E4 F G2 F | G2- G/A/B/c/) d4 | %15
w: fui et frus- tra la\-|* * * * * bo- ra\- *|vi. Rot- to\_e\_al|ven- to\_o- gni spe- ran\- *||* * * * * za,|
 d2 c2 B3 A | G2 F2 G4 | F4 B2 B2 | c>B AG (F2 G2 | E4 F G2 F | G2- G/A/B/c/) d4 | d2 c2 B3 A | %22
w: ve- ggio\_il ciel vol-|tar- mi\_in pian-|to. Sus- pir|la- cri- me m'a- van\- *||* * * * * za,|del mio tris- to|
 G2 F2 G4 | F4 d4- | d2 c2 B3 A x | G2 F2 G4 x3 | F4 B3 A | G2 F(B- B/A/G/F/ E2) | F (G2 F) G4 | %29
w: spe- rar tan-|to. Fui|* fe- ri- to,|se non quan-|to, tri- bu-|lan- do\_ad te * * * * *|cla- ma\- * vi.|
 B2 B2 c>B AG | (F2 G2 E4 | F G2 F) G2 z2 |[Q:1/4=58] G4[Q:1/4=56] G2[Q:1/4=55] G2 |[Q:1/4=52] G8 | %34
w: In Te, Do- mi- ne, spe-|ra\- * *|* * * vi,|in Te spe-|ra-|
[Q:1/4=50] G8 |] %35
w: vi.|
V:2
 G2 G2 G>F ED | (D4 z G2 F/E/ | DC D2 B,2) (G,>A, | B,/C/ D2) (B,2 D2) C | %4
w: In te, Do- mi- ne, spe-|ra\- * * *|* * * * vi, *|* * * per * tro-|
[M:4/4] D2 G, A,2 G,A,(D- | DC/B,/ C2) D4 | (G,/A,/B,/C/ D B,2) D2 C | D2 G, A,2 G,A,D- | %8
w: var pie- tà in e- ter\-|* * * * no.|Ma * * * * * in un|tris- to\_e ob- scu- ro in\-|
 D (C/B,/ C2) D2 (D>C | B,/A,/ G,2) A,2 G,A,(B, | G,B,>DE) (DC) C2 | (B,>C D2) G2 G2 | G>F ED (D4 | %13
w: * fer\- * * no, fui\- *|* * * et frus- tra la\-|* * * * bo\- * ra-|vi. * * Rot- to\_e\_al|ven- to\_o- gni spe- ran\-|
 z G2 F/E/ DC D2 | B,2) (G,>A, B,/C/ D2) (B,- | B, D2) C D2 G,A,- | A,G,A,(D- DC/B,/ C2) | %17
w: |* za, * * * * ve\-|* * ggio\_il ciel vol- tar\-|* rar mi\_in pian\- * * * *|
 D4 G2 G2 | G>F ED (D4 | z G2 F/E/ DC D2 | B,2 (G,>A, B,/C/ D2) B,- | B, D2) C D2 G,A,- | %22
w: to. Sus- pir|la- cri- me m'a- van\-||* za, * * * * del|* * mio tris- to spe\-|
 A, (G,A,)(D- DC/B,/ C2) | D4 (G,/A,/B,/C/ DB,- | B, D2) C (D2 G,)A,- x | %25
w: * rar * tan\- * * * *|to. Fui * * * * *|* * fe- ri\- * to,|
 A, (G,A,)D- D (C/B,/ C2) x3 | D2 (D>C B,/A,/ G,2) A,- | A,G,A,(B, G,B,>DE) | (DC) C2 (B,>C D2) | %29
w: * se * non * quan\- * *|to, tri\- * * * * bu\-|* lan- do\_ad te * * * *|cla\- * ma- vi. * *|
 G2 G2 G>F ED | (D4 z G2 F/E/ | DC D2) (B,>C D/E/D- | D/C/ C2) B, C2 E2 | (DC D2) (C E2 D/C/ | %34
w: In Te, Do- mi- ne, spe-|ra\- * * *|* * * vi, * * * *|* * * in Te spe-|ra\- * * vi. * * *|
 B,8) |] %35
w: |
V:3
 d2 d2 e>d cB | (A2 B2 c3 B | AG A2 d2) d2 | (G>A B/c/d/e/ f g2) f | %4
w: In te Do- mi- ne spe-|ra\- * * *|* * * * vi,|per * * * * * * * tro-|
[M:4/4][K:treble-8] (gf/e/ d) d2 c d2 | G4 A4 | (G>A) (B/c/d/e/ f g2) f | (gf/e/) d d2 c d2 | %8
w: var * * * pie- tà\_in e-|ter- no.|Ma * in * * * * * un|tris\- * * to e\_ob- scu- ro\_in-|
 G4 A4 | (G>A B/c/ d2) c d2 | B (e>dc/B/) (AG) A2 | G4 d2 d2 | e>d cB (A2 B2 | c3 B AG A2 | %14
w: fer- no,|fui * * * * et frus-|tra la\- * * * bo\- * ra-|vi. Rot- to\_e\_al|ven- to\_o- gni spe- ran\- *||
 d2) d2 (G>A B/c/d/e/ | f g2) f (gf/e/ d)d- | dc d2 G4 | A4 d2 d2 | e>d cB (A2 B2 | c3 B AG A2 | %20
w: * za, ve\- * * * * *|* * ggio\_il ciel * * * vol\-|* tar- mi\_in pian-|to. Sus- pir|la- cri- me m'a- van\- *||
 d2 d2 (G>A B/c/d/e/ | f g2) f gf/e/ d)d- | dc d2 G4 | A4 (G>A B/c/d/e/ | f g2) f (gf/e/ d) d2 | %25
w: * za, del * * * * *|* * mio tris\- * * * to|* spe- rar tan-|to. Fui * * * * *|* * fe- ri\- * * * to,|
 c d2 G4 A4 | (G>A B/c/d- x4 | dc d2 B (e>dc/B/) | AG) A2 G4 | d2 d2 e>d cB | (A2 B2 c3 B | %31
w: se non quan- to,|tri\- * * * *|* bu- lan- do\_ad te * * *|cla\- * ma- vi.|In Te, Do- mi- ne, spe-|ra\- * * *|
 AG A2) G3 (B- | Bc) d2 (e>d) (cB/A/ | B c2 B) (c>d e2 | d8) |] %35
w: * * * vi, in|* * Te spe\- * ra\- * *|* * * vi. * *||
V:4
 G,2 G,2 C,2 C,2 | D,2 G,2 (C,4 | D,E, D,2 G,2) G,2 | z (G,>A,B,/C/ DC/B,/) A,2 | %4
w: In te Do- mi-|ne spe- ra\-|* * * * vi,|per * * * * * * tro-|
[M:4/4] G,3 F, E,2 D,2 | E,4 D,4 | G,2 (G,/A,/B,/C/ DC/B,/) A,2 | G,3 F, E,2 D,2 | E,4 D,2 z (D- | %9
w: var pie- tà\_in e-|ter- no.|Ma in * * * * * * un|tris- to\_e\_ob- scu- ro\_in-|fer- no, fui|
 D/C/B,/A,/ G,)F, E,2 D,2 | E,2 C,2 (D,E,) D,2 | z (D>CB,/A,/ G,2 G,2) | C,2 C,2 D,2 G,2 | %13
w: * * * * * et frus- tra|la- bo- ra\- * vi.|Rot\- * * * * to\_e\_al|ven- to\_o- gni spe-|
 (C,4 D,E, D,2 | G,2) G,2 z (G,>A,B,/C/ | DC/B,/) A,2 G,3 F, | E,2 D,2 E,4 | D,4 G,2 G,2 | %18
w: ran\- * * *|* za, ve\- * * *|* * * ggio\_il ciel vol-|tar- mi\_in pian-|to. Sus- pir|
 C,2 C,2 D,2 G,2 | (C,4 D,E, D,2 | G,2 G,2 z (G,>A,B,/C/ | DC/B,/) A,2 G,3 F, | E,2 D,2 E,4 | %23
w: la- cri- me m'a-|van\- * * *|* za, del * * *|* * * mio tris- to|spe- rar tan-|
 D,4 G,2- G,/A,/B,/C/ | DC/B,/) A,2 G,3 F, x | E,2 D,2 E,4 x3 | D,3 (D- D/C/B,/A,/ G,)F, | %27
w: to. Fui * * * *|* * * fe- ri- to,|se non quan-|to, tri\- * * * * * bu-|
 E,2 D,2 E,2 C,2 | (D,E,) D,2 z (D>CB,/A,/ | G,2 (G,/)F,/E,/D,/) C,2 D,2 | D,2 G,2 (C,4 | %31
w: lan- do\_ad te cla-|ma\- * vi. In * * *|* Te, * * * Do- mi-|ne, spe- ra\-|
 D,E, D,2) G,,2 G,2- | G,4 C,4 | G,4 C,4 | G,8 |] %35
w: * * * vi, in|* Te|spe- ra-|vi.|

